src/icapps_assets/assets/favicon/favicon.svg

<svg fill="none" height="48" viewBox="0 0 48 48" width="48" xmlns="http://www.w3.org/2000/svg" xmlns:xlink="http://www.w3.org/1999/xlink"><linearGradient id="a" gradientUnits="userSpaceOnUse" x1="0" x2="47.4678" y1="48" y2="-.520651"><stop offset="0" stop-color="#6200ea"/><stop offset="1" stop-color="#304ffe"/></linearGradient><rect fill="url(#a)" height="48" rx="24" width="48"/><path d="m31.1255 15c-2.1946 0-4.2616.8098-5.8627 2.2242l3.3871 5.0363c.5509-.8413 1.4772-1.346 2.4756-1.346 1.6307 0 2.9582 1.3275 2.9582 2.9582s-1.3275 2.9581-2.9582 2.9581c-1.0002 0-1.9247-.5029-2.4978-1.3774l-4.3263-6.4321c-1.6474-2.5182-4.4243-4.0213-7.4269-4.0213-4.8939 0-8.8745 3.9806-8.8745 8.8745s3.9806 8.8745 8.8745 8.8745c2.1946 0 4.2616-.8098 5.8627-2.2242l-3.3871-5.0381c-.5509.8431-1.4754 1.346-2.4756 1.346-1.6307 0-2.9582-1.3275-2.9582-2.9582s1.3275-2.9582 2.9582-2.9582c1.0002 0 1.9247.5029 2.4978 1.3774l4.3263 6.4322c1.6455 2.52 4.4225 4.0231 7.4269 4.0231 4.8939 0 8.8745-3.9806 8.8745-8.8745s-3.9824-8.8745-8.8745-8.8745z" fill="#fff"/></svg>

<svg width="48" height="48" viewBox="0 0 48 48" fill="none" xmlns="http://www.w3.org/2000/svg">
<rect width="48" height="48" rx="24" fill="url(#paint0_linear)"/>
<path d="M31.1255 15C28.9309 15 26.8639 15.8098 25.2628 17.2242L28.6499 22.2605C29.2008 21.4192 30.1271 20.9145 31.1255 20.9145C32.7562 20.9145 34.0837 22.242 34.0837 23.8727C34.0837 25.5034 32.7562 26.8308 31.1255 26.8308C30.1253 26.8308 29.2008 26.3279 28.6277 25.4534L24.3014 19.0213C22.654 16.5031 19.8771 15 16.8745 15C11.9806 15 8 18.9806 8 23.8745C8 28.7684 11.9806 32.749 16.8745 32.749C19.0691 32.749 21.1361 31.9392 22.7372 30.5248L19.3501 25.4867C18.7992 26.3298 17.8747 26.8327 16.8745 26.8327C15.2438 26.8327 13.9163 25.5052 13.9163 23.8745C13.9163 22.2438 15.2438 20.9163 16.8745 20.9163C17.8747 20.9163 18.7992 21.4192 19.3723 22.2937L23.6986 28.7259C25.3441 31.2459 28.1211 32.749 31.1255 32.749C36.0194 32.749 40 28.7684 40 23.8745C40 18.9806 36.0176 15 31.1255 15Z" fill="white"/>
<defs>
<linearGradient id="paint0_linear" x1="-2.01165e-07" y1="48" x2="47.4678" y2="-0.520651" gradientUnits="userSpaceOnUse">
<stop stop-color="#6200EA"/>
<stop offset="1" stop-color="#304FFE"/>
</linearGradient>
</defs>
</svg>
